src/2-landmarks/desktop--take-photo.svg

<svg width="1300" height="1000" viewBox="0 0 1300 1000" fill="none" xmlns="http://www.w3.org/2000/svg"><path d="m875.124 880.828 16.376-8.635-10.147-141.652c-1.367-19.081 10.968-36.459 29.432-41.464L962 675.193a28.776 28.776 0 0 1 19.375-27.197l21.125-7.303c0-51.667 6-158.691 33-163.5 38.82-6.914 61 16 73 50.5 7.17 20.628 22.5 113.5 22.5 113.5l-11.5 3.5v34.192c0 17.113-10.89 32.331-27.08 37.857L988.5 752.193l15 112.5 1.21 10.545c.42 3.706-2.48 6.955-6.21 6.955v18h-134l-.035-.934a20 20 0 0 1 10.659-18.431Z" fill="#000"/><path d="m878.709 886.649 20.791-8.516-11.166-150.423c-1.065-14.342 8.198-27.422 22.08-31.179l85.086-23.028-70.759 47.986a30 30 0 0 0-12.658 30.307L935 875.192l-17.227 6.176a15 15 0 0 0-9.907 13.155l-.366 5.669h-35v-4.289a10 10 0 0 1 6.209-9.254Z" fill="#fff"/><path d="M921.658 887.549 942 880.202l-22.425-125.901a30 30 0 0 1 12.631-30.045L1010 671.193l102.5-23v32.721c0 12.746-8.05 24.1-20.08 28.313l-111.248 38.966 17.075 123.561c.619 4.479-4.747 9.113-4.747 13.635v14.823H915l.057-3.425a10 10 0 0 1 6.601-9.238ZM1096.5 515.693c13.91 29.977 26 123.5 26 123.5l-111.5 24-40.21 10.407a1.395 1.395 0 0 1-1.701-1.698 27.902 27.902 0 0 1 18.942-19.758l22.969-6.951 65-23-11.28-65.639a1.532 1.532 0 0 0-3.03.43l6.81 60.709-59.5 21.5c0-101.36 14.07-138.009 20.43-149.404 1.77-3.165 4.77-5.288 8.28-6.186 11.85-3.029 41.15-5.924 58.79 32.09Z" fill="#fff"/><path d="M1059.16 473.086c-3.77 1.408-10.81 1.91-12.65 1.914 0 0-8.3-.069-13.14-1.914-5.44-2.079-8.48-4.109-12.16-8.575-2.49-3.022-4.44-8.223-5.32-10.853a22.077 22.077 0 0 1-.8-3.31l-4.09-24.154s-.5-3.492-.49-5.742c.02-5.351.75-8.493 2.92-13.398 2.23-5.038 4.18-7.735 8.27-11.484 4.35-3.996 7.49-5.742 13.13-7.625 4.38-1.462 7.06-1.907 11.68-1.945 4.96.167 6.81.478 11.55 1.945 4.74 1.577 9.58 4.373 13.26 7.625 3.68 3.252 6.26 7.101 8.27 11.484s2.92 8.615 2.92 13.398c0 1.803-.2 3.959-.49 5.742l-4.86 23.833a25.09 25.09 0 0 1-1.01 3.617c-1.04 2.793-3.21 8.177-5.32 10.829-2.92 3.676-7.16 6.929-11.67 8.613Z" fill="#000"/><path d="M1056.7 466.387c-3.04 1.186-8.71 1.609-10.19 1.613 0 0-6.69-.058-10.58-1.613-4.39-1.752-6.84-3.462-9.8-7.226-1.95-2.474-3.48-6.68-4.22-8.951a20.428 20.428 0 0 1-.74-3.184l-3.27-20.155s-.4-2.943-.39-4.839c.02-4.509.6-7.156 2.35-11.29 1.8-4.246 3.37-6.518 6.66-9.677 3.51-3.368 6.04-4.839 10.58-6.426 3.53-1.232 5.68-1.607 9.41-1.639 4 .141 5.49.403 9.3 1.639 3.82 1.329 7.72 3.685 10.69 6.426 2.96 2.74 5.04 5.983 6.66 9.677s2.35 7.26 2.35 11.29c0 1.52-.16 3.337-.39 4.839l-3.88 19.862a24.563 24.563 0 0 1-.93 3.486c-.87 2.407-2.56 6.742-4.21 8.91-2.35 3.098-5.77 5.839-9.4 7.258Zm-40.75 41.516.05-.06c-.02.017-.03.037-.05.06L984.941 544.5 936 506l-22.559-32.008c-1.5-2.333-4-8.649-11.5-6.649-7.5 2-4.5 11.333-3 16l7 25.5 79 70.657 22.059-18c1.65-17.483 7.28-51.344 8.95-53.597Z" fill="#fff"/><path d="m983.5 533 40-45-1 11.5-37.5 44-50-39-24-35c-1.167-1.5-4.6-4.2-9-3-4.4 1.2-5.167 6.167-4.5 9l9 32L985 578l24-19-1 8.5-23.5 19.5-83.5-75.5c-2.667-10.333-9.2-31.8-10-35-1-4 1-15.5 11-17 8-1.2 14 5.167 16 8.5l23 32.5 42.5 32.5ZM1136 697h-27l-27.72 16.118L1102 704h36c5.52 0 10-4.477 10-10v-79.5c0-3.038 2.46-5.5 5.5-5.5s5.5 2.462 5.5 5.5V700c0 8.284-6.72 15-15 15h-65.96l-12.04 7h80c11.05 0 20-8.954 20-20v-87.5c0-6.904-5.6-12.5-12.5-12.5s-12.5 5.596-12.5 12.5V692c0 2.761-2.24 5-5 5Zm-100 35h7v168h-7V732Zm105-10h7v178h-7V722Z" fill="#000"/><path fill-rule="evenodd" clip-rule="evenodd" d="M468.5 698c6.904 0 12.5 5.596 12.5 12.5s-5.596 12.5-12.5 12.5H351c-11.046 0-20-8.954-20-20v-87.5c0-6.904 5.596-12.5 12.5-12.5s12.5 5.596 12.5 12.5V693a5 5 0 0 0 5 5h107.5Zm0 7a5.5 5.5 0 1 1 0 11H353c-8.284 0-15-6.716-15-15v-85.5a5.5 5.5 0 0 1 11 0V695c0 5.523 4.477 10 10 10h109.5Z" fill="#000"/><path d="M461 723h-7v177h7V723Zm-105 0h-7v177h7V723ZM0 900h1300v100H0V900Z" fill="#000"/><path fill-rule="evenodd" clip-rule="evenodd" d="M820 366c-11.046 0-20 8.954-20 20v25c0 11.046 8.954 20 20 20h60c11.046 0 20-8.954 20-20v-25c0-11.046-8.954-20-20-20h-60Zm2 7c-8.284 0-15 6.716-15 15v21c0 8.284 6.716 15 15 15h56c8.284 0 15-6.716 15-15v-21c0-8.284-6.716-15-15-15h-56Z" fill="#000"/><path fill-rule="evenodd" clip-rule="evenodd" d="M850 419c11.046 0 20-8.954 20-20s-8.954-20-20-20-20 8.954-20 20 8.954 20 20 20Zm0-7c7.18 0 13-5.82 13-13s-5.82-13-13-13-13 5.82-13 13 5.82 13 13 13Z" fill="#000"/><path d="m841.641 425.668 6.893 1.216-29.173 165.447-6.893-1.215 29.173-165.448Zm9.824 1.216 6.894-1.216 29.172 165.448-6.893 1.215-29.173-165.447Z" fill="#000"/><path fill-rule="evenodd" clip-rule="evenodd" d="M672 590c-11.046 0-20 8.954-20 20s8.954 20 20 20h300c11.046 0 20-8.954 20-20s-8.954-20-20-20H672Zm0 7c-7.18 0-13 5.82-13 13s5.82 13 13 13h300c7.18 0 13-5.82 13-13s-5.82-13-13-13H672Z" fill="#000"/><path d="M672 630h7v270h-7V630Z" fill="#000"/></svg>

<svg width="1300" height="1000" viewBox="0 0 1300 1000" fill="none" xmlns="http://www.w3.org/2000/svg">
<path d="M875.124 880.828L891.5 872.193L881.353 730.541C879.986 711.46 892.321 694.082 910.785 689.077L962 675.193C962 662.924 969.779 652.004 981.375 647.996L1002.5 640.693C1002.5 589.026 1008.5 482.002 1035.5 477.193C1074.32 470.279 1096.5 493.193 1108.5 527.693C1115.67 548.321 1131 641.193 1131 641.193L1119.5 644.693V678.885C1119.5 695.998 1108.61 711.216 1092.42 716.742L988.5 752.193L1003.5 864.693L1004.71 875.238C1005.13 878.944 1002.23 882.193 998.5 882.193V900.193H864.5L864.465 899.259C864.181 891.578 868.324 884.413 875.124 880.828Z" fill="black"/>
<path d="M878.709 886.649L899.5 878.133L888.334 727.71C887.269 713.368 896.532 700.288 910.414 696.531L995.5 673.503L924.741 721.489C914.875 728.18 909.906 740.076 912.083 751.796L935 875.192L917.773 881.368C912.144 883.386 908.251 888.555 907.866 894.523L907.5 900.192H872.5V895.903C872.5 891.844 874.953 888.187 878.709 886.649Z" fill="white"/>
<path d="M921.658 887.549L942 880.202L919.575 754.301C917.504 742.673 922.448 730.912 932.206 724.256L1010 671.193L1112.5 648.193V680.914C1112.5 693.66 1104.45 705.014 1092.42 709.227L981.172 748.193L998.247 871.754C998.866 876.233 993.5 880.867 993.5 885.389V900.212H915L915.057 896.787C915.126 892.636 917.753 888.96 921.658 887.549Z" fill="white"/>
<path d="M1096.5 515.693C1110.41 545.67 1122.5 639.193 1122.5 639.193L1011 663.193L970.79 673.6C969.761 673.867 968.824 672.931 969.089 671.902C971.517 662.459 978.698 654.968 988.031 652.144L1011 645.193L1076 622.193L1064.72 556.554C1064.59 555.821 1063.96 555.284 1063.21 555.284C1062.3 555.284 1061.59 556.077 1061.69 556.984L1068.5 617.693L1009 639.193C1009 537.833 1023.07 501.184 1029.43 489.789C1031.2 486.624 1034.2 484.501 1037.71 483.603C1049.56 480.574 1078.86 477.679 1096.5 515.693Z" fill="white"/>
<path d="M1059.16 473.086C1055.39 474.494 1048.35 474.996 1046.51 475C1046.51 475 1038.21 474.931 1033.37 473.086C1027.93 471.007 1024.89 468.977 1021.21 464.511C1018.72 461.489 1016.77 456.288 1015.89 453.658C1015.53 452.579 1015.28 451.47 1015.09 450.348L1011 426.194C1011 426.194 1010.5 422.702 1010.51 420.452C1010.53 415.101 1011.26 411.959 1013.43 407.054C1015.66 402.016 1017.61 399.319 1021.7 395.57C1026.05 391.574 1029.19 389.828 1034.83 387.945C1039.21 386.483 1041.89 386.038 1046.51 386C1051.47 386.167 1053.32 386.478 1058.06 387.945C1062.8 389.522 1067.64 392.318 1071.32 395.57C1075 398.822 1077.58 402.671 1079.59 407.054C1081.6 411.437 1082.51 415.669 1082.51 420.452C1082.51 422.255 1082.31 424.411 1082.02 426.194L1077.16 450.027C1076.91 451.256 1076.58 452.468 1076.15 453.644C1075.11 456.437 1072.94 461.821 1070.83 464.473C1067.91 468.149 1063.67 471.402 1059.16 473.086Z" fill="black"/>
<path d="M1056.7 466.387C1053.66 467.573 1047.99 467.996 1046.51 468C1046.51 468 1039.82 467.942 1035.93 466.387C1031.54 464.635 1029.09 462.925 1026.13 459.161C1024.18 456.687 1022.65 452.481 1021.91 450.21C1021.57 449.171 1021.34 448.105 1021.17 447.026L1017.9 426.871C1017.9 426.871 1017.5 423.928 1017.51 422.032C1017.53 417.523 1018.11 414.876 1019.86 410.742C1021.66 406.496 1023.23 404.224 1026.52 401.065C1030.03 397.697 1032.56 396.226 1037.1 394.639C1040.63 393.407 1042.78 393.032 1046.51 393C1050.51 393.141 1052 393.403 1055.81 394.639C1059.63 395.968 1063.53 398.324 1066.5 401.065C1069.46 403.805 1071.54 407.048 1073.16 410.742C1074.78 414.436 1075.51 418.002 1075.51 422.032C1075.51 423.552 1075.35 425.369 1075.12 426.871L1071.24 446.733C1071.01 447.917 1070.71 449.084 1070.31 450.219C1069.44 452.626 1067.75 456.961 1066.1 459.129C1063.75 462.227 1060.33 464.968 1056.7 466.387Z" fill="white"/>
<path d="M1015.95 507.903L1016 507.843C1015.98 507.86 1015.97 507.88 1015.95 507.903L984.941 544.5L936 506L913.441 473.992C911.941 471.659 909.441 465.343 901.941 467.343C894.441 469.343 897.441 478.676 898.941 483.343L905.941 508.843L984.941 579.5L1007 561.5C1008.65 544.017 1014.28 510.156 1015.95 507.903Z" fill="white"/>
<path d="M983.5 533L1023.5 488L1022.5 499.5L985 543.5L935 504.5L911 469.5C909.833 468 906.4 465.3 902 466.5C897.6 467.7 896.833 472.667 897.5 475.5L906.5 507.5L985 578L1009 559L1008 567.5L984.5 587L901 511.5C898.333 501.167 891.8 479.7 891 476.5C890 472.5 892 461 902 459.5C910 458.3 916 464.667 918 468L941 500.5L983.5 533Z" fill="black"/>
<path d="M1136 697H1109L1081.28 713.118L1102 704H1138C1143.52 704 1148 699.523 1148 694V614.5C1148 611.462 1150.46 609 1153.5 609C1156.54 609 1159 611.462 1159 614.5V700C1159 708.284 1152.28 715 1144 715H1078.04L1066 722H1146C1157.05 722 1166 713.046 1166 702V614.5C1166 607.596 1160.4 602 1153.5 602C1146.6 602 1141 607.596 1141 614.5V692C1141 694.761 1138.76 697 1136 697Z" fill="black"/>
<path d="M1036 732H1043V900H1036V732Z" fill="black"/>
<path d="M1141 722H1148V900H1141V722Z" fill="black"/>
<path fill-rule="evenodd" clip-rule="evenodd" d="M468.5 698C475.404 698 481 703.596 481 710.5C481 717.404 475.404 723 468.5 723H351C339.954 723 331 714.046 331 703V615.5C331 608.596 336.596 603 343.5 603C350.404 603 356 608.596 356 615.5V693C356 695.761 358.239 698 361 698H468.5ZM468.5 705C471.538 705 474 707.462 474 710.5C474 713.538 471.538 716 468.5 716H353C344.716 716 338 709.284 338 701V615.5C338 612.462 340.463 610 343.5 610C346.538 610 349 612.462 349 615.5V695C349 700.523 353.477 705 359 705H468.5Z" fill="black"/>
<path d="M461 723H454V900H461V723Z" fill="black"/>
<path d="M356 723H349V900H356V723Z" fill="black"/>
<path d="M0 900H1300V1000H0V900Z" fill="black"/>
<path fill-rule="evenodd" clip-rule="evenodd" d="M820 366C808.954 366 800 374.954 800 386V411C800 422.046 808.954 431 820 431H880C891.046 431 900 422.046 900 411V386C900 374.954 891.046 366 880 366H820ZM822 373C813.716 373 807 379.716 807 388V409C807 417.284 813.716 424 822 424H878C886.284 424 893 417.284 893 409V388C893 379.716 886.284 373 878 373H822Z" fill="black"/>
<path fill-rule="evenodd" clip-rule="evenodd" d="M850 419C861.046 419 870 410.046 870 399C870 387.954 861.046 379 850 379C838.954 379 830 387.954 830 399C830 410.046 838.954 419 850 419ZM850 412C857.18 412 863 406.18 863 399C863 391.82 857.18 386 850 386C842.82 386 837 391.82 837 399C837 406.18 842.82 412 850 412Z" fill="black"/>
<path d="M841.641 425.668L848.534 426.884L819.361 592.331L812.468 591.116L841.641 425.668Z" fill="black"/>
<path d="M851.465 426.884L858.359 425.668L887.531 591.116L880.638 592.331L851.465 426.884Z" fill="black"/>
<path fill-rule="evenodd" clip-rule="evenodd" d="M672 590C660.954 590 652 598.954 652 610C652 621.046 660.954 630 672 630H972C983.046 630 992 621.046 992 610C992 598.954 983.046 590 972 590H672ZM672 597C664.82 597 659 602.82 659 610C659 617.18 664.82 623 672 623H972C979.18 623 985 617.18 985 610C985 602.82 979.18 597 972 597H672Z" fill="black"/>
<path d="M672 630H679V900H672V630Z" fill="black"/>
<path d="M659 610C659 602.82 664.82 597 672 597H972C979.18 597 985 602.82 985 610C985 617.18 979.18 623 972 623H672C664.82 623 659 617.18 659 610Z" fill="white"/>
</svg>
